docs/img/svg/about-me-instagram.svg

<svg width="30" height="30" viewBox="0 0 30 30" fill="none" xmlns="http://www.w3.org/2000/svg">
<mask id="path-1-inside-1" fill="white">
<path fill-rule="evenodd" clip-rule="evenodd" d="M2.5 6C2.5 4.067 4.067 2.5 6 2.5H24C25.933 2.5 27.5 4.067 27.5 6V24C27.5 25.933 25.933 27.5 24 27.5H6C4.067 27.5 2.5 25.933 2.5 24V6ZM21.25 15C21.25 18.4518 18.4518 21.25 15 21.25C11.5482 21.25 8.75 18.4518 8.75 15C8.75 11.5482 11.5482 8.75 15 8.75C18.4518 8.75 21.25 11.5482 21.25 15ZM21.25 8.75C21.9404 8.75 22.5 8.19036 22.5 7.5C22.5 6.80964 21.9404 6.25 21.25 6.25C20.5596 6.25 20 6.80964 20 7.5C20 8.19036 20.5596 8.75 21.25 8.75Z"/>
</mask>
<path fill-rule="evenodd" clip-rule="evenodd" d="M2.5 6C2.5 4.067 4.067 2.5 6 2.5H24C25.933 2.5 27.5 4.067 27.5 6V24C27.5 25.933 25.933 27.5 24 27.5H6C4.067 27.5 2.5 25.933 2.5 24V6ZM21.25 15C21.25 18.4518 18.4518 21.25 15 21.25C11.5482 21.25 8.75 18.4518 8.75 15C8.75 11.5482 11.5482 8.75 15 8.75C18.4518 8.75 21.25 11.5482 21.25 15ZM21.25 8.75C21.9404 8.75 22.5 8.19036 22.5 7.5C22.5 6.80964 21.9404 6.25 21.25 6.25C20.5596 6.25 20 6.80964 20 7.5C20 8.19036 20.5596 8.75 21.25 8.75Z" fill="#333333"/>
<path d="M6 0C2.68629 0 0 2.68629 0 6H5C5 5.44772 5.44772 5 6 5V0ZM24 0H6V5H24V0ZM30 6C30 2.68629 27.3137 0 24 0V5C24.5523 5 25 5.44772 25 6H30ZM30 24V6H25V24H30ZM24 30C27.3137 30 30 27.3137 30 24H25C25 24.5523 24.5523 25 24 25V30ZM6 30H24V25H6V30ZM0 24C0 27.3137 2.68629 30 6 30V25C5.44772 25 5 24.5523 5 24H0ZM0 6V24H5V6H0ZM15 23.75C19.8325 23.75 23.75 19.8325 23.75 15H18.75C18.75 17.0711 17.0711 18.75 15 18.75V23.75ZM6.25 15C6.25 19.8325 10.1675 23.75 15 23.75V18.75C12.9289 18.75 11.25 17.0711 11.25 15H6.25ZM15 6.25C10.1675 6.25 6.25 10.1675 6.25 15H11.25C11.25 12.9289 12.9289 11.25 15 11.25V6.25ZM23.75 15C23.75 10.1675 19.8325 6.25 15 6.25V11.25C17.0711 11.25 18.75 12.9289 18.75 15H23.75ZM20 7.5C20 6.80964 20.5596 6.25 21.25 6.25V11.25C23.3211 11.25 25 9.57107 25 7.5H20ZM21.25 8.75C20.5596 8.75 20 8.19036 20 7.5H25C25 5.42893 23.3211 3.75 21.25 3.75V8.75ZM22.5 7.5C22.5 8.19036 21.9404 8.75 21.25 8.75V3.75C19.1789 3.75 17.5 5.42893 17.5 7.5H22.5ZM21.25 6.25C21.9404 6.25 22.5 6.80964 22.5 7.5H17.5C17.5 9.57107 19.1789 11.25 21.25 11.25V6.25Z" fill="#333333" mask="url(#path-1-inside-1)"/>
</svg>

<svg width="30" height="30" fill="none" xmlns="http://www.w3.org/2000/svg"><mask id="a" fill="#fff"><path fill-rule="evenodd" clip-rule="evenodd" d="M2.5 6A3.5 3.5 0 016 2.5h18A3.5 3.5 0 0127.5 6v18a3.5 3.5 0 01-3.5 3.5H6A3.5 3.5 0 012.5 24V6zm18.75 9a6.25 6.25 0 11-12.5 0 6.25 6.25 0 0112.5 0zm0-6.25a1.25 1.25 0 100-2.5 1.25 1.25 0 000 2.5z"/></mask><path fill-rule="evenodd" clip-rule="evenodd" d="M2.5 6A3.5 3.5 0 016 2.5h18A3.5 3.5 0 0127.5 6v18a3.5 3.5 0 01-3.5 3.5H6A3.5 3.5 0 012.5 24V6zm18.75 9a6.25 6.25 0 11-12.5 0 6.25 6.25 0 0112.5 0zm0-6.25a1.25 1.25 0 100-2.5 1.25 1.25 0 000 2.5z" fill="#333"/><path d="M6 0a6 6 0 00-6 6h5a1 1 0 011-1V0zm18 0H6v5h18V0zm6 6a6 6 0 00-6-6v5a1 1 0 011 1h5zm0 18V6h-5v18h5zm-6 6a6 6 0 006-6h-5a1 1 0 01-1 1v5zM6 30h18v-5H6v5zm-6-6a6 6 0 006 6v-5a1 1 0 01-1-1H0zM0 6v18h5V6H0zm15 17.75A8.75 8.75 0 0023.75 15h-5A3.75 3.75 0 0115 18.75v5zM6.25 15A8.75 8.75 0 0015 23.75v-5A3.75 3.75 0 0111.25 15h-5zM15 6.25A8.75 8.75 0 006.25 15h5A3.75 3.75 0 0115 11.25v-5zM23.75 15A8.75 8.75 0 0015 6.25v5A3.75 3.75 0 0118.75 15h5zM20 7.5c0-.69.56-1.25 1.25-1.25v5A3.75 3.75 0 0025 7.5h-5zm1.25 1.25c-.69 0-1.25-.56-1.25-1.25h5a3.75 3.75 0 00-3.75-3.75v5zM22.5 7.5c0 .69-.56 1.25-1.25 1.25v-5A3.75 3.75 0 0017.5 7.5h5zm-1.25-1.25c.69 0 1.25.56 1.25 1.25h-5a3.75 3.75 0 003.75 3.75v-5z" fill="#333" mask="url(#a)"/></svg>
